communes/3862.svg

<?xml version="1.0" encoding="UTF-8"?>
<!DOCTYPE svg  PUBLIC '-//W3C//DTD SVG 1.1//EN'  'http://www.w3.org/Graphics/SVG/1.1/DTD/svg11.dtd'>
<svg width="438" height="480" viewBox="21 15 438 480" xmlns="http://www.w3.org/2000/svg" xmlns:dc="http://purl.org/dc/elements/1.1/" xmlns:rdf="http://www.w3.org/1999/02/22-rdf-syntax-ns#" xmlns:xlink="http://www.w3.org/1999/xlink">
<metadata>
<rdf:RDF>
<rdf:Description dc:date="2006-10-29" dc:format="image/svg+xml" dc:language="de" dc:title="Wappen Furna (CH-GR)">
<dc:creator rdf:resource="http://de.wikipedia.org/wiki/Benutzer:Bernina"/>
</rdf:Description>
</rdf:RDF>
</metadata>
<title>Wappen Furna (CH-GR)</title>
<style type="text/css"><![CDATA[
  .Rand2 { stroke: #202020; stroke-width:30; }
  .Rand6 { stroke: #202020; stroke-width:90; }
  .Schwarz { fill: #000000; }
  .Blau { fill: #0000ff; }
  .Gold { fill: #ffef00; }
  .Silber { fill: #ffffff; }
  ]]></style>
<defs>
<path id="d" d="m3510 4680c-210 570-420 1140-480 1485s30 465 150 465 270-120 420-120 300 120 420 120 210-120 150-465-270-915-480-1485"/>
<path id="b" d="m3480 6930h240l-30-4320h-180l-30 4320z"/>
<path id="a" d="m3510 2610h180v-900l450 810 90-360-270-450-270-540-90-270-90 270-270 540-270 450 90 360 450-810v900z"/>
<path id="c" d="m3645 2430a45 45 0 0 0-90 0 45 45 0 0 0 90 0z"/>
<clipPath id="e">
<path d="m360 4140a3240 3240 0 0 0 6480 0v-3870h-6480v3870z"/>
</clipPath>
</defs>
<g transform="scale(.066667)" fill="none" fill-rule="evenodd" stroke-miterlimit="10" stroke-width="10">
<g clip-path="url(#e)">
<path class="Blau" d="m-225-225v7650h7650v-7650h-7650z"/>
<path class="Gold Rand2" d="m1080 4320a2520 2520 0 0 0 5040 0 2925 2925 0 0 1-5040 0z"/>
<g transform="rotate(57 3600,2430) translate(0,-1620)">
<use class="Gold Rand2" xlink:href="#d"/>
<use class="Gold Rand2" xlink:href="#b"/>
<use class="Silber Rand2" xlink:href="#a"/>
<use class="Schwarz" xlink:href="#c"/>
</g>
<g transform="rotate(-57 3600,2430) translate(0,-1620)">
<use class="Gold Rand2" xlink:href="#d"/>
<use class="Gold Rand2" xlink:href="#b"/>
<use class="Silber Rand2" xlink:href="#a"/>
<use class="Schwarz" xlink:href="#c"/>
</g>
</g>
<path class="Rand6" d="m360 4140a3240 3240 0 0 0 6480 0v-3870h-6480v3870z"/>
</g>
</svg>

<?xml version="1.0" encoding="iso-8859-1"?>
<!DOCTYPE svg PUBLIC "-//W3C//DTD SVG 1.1//EN" "http://www.w3.org/Graphics/SVG/1.1/DTD/svg11.dtd">
<!-- Auto-generated by fig2svg tool
     Date: Sun Oct 29 07:46:22 2006 -->
<svg xmlns="http://www.w3.org/2000/svg"
   xmlns:dc="http://purl.org/dc/elements/1.1/"
   xmlns:cc="http://creativecommons.org/ns#"
   xmlns:rdf="http://www.w3.org/1999/02/22-rdf-syntax-ns#"
   xmlns:svg="http://www.w3.org/2000/svg"
   xmlns:xlink="http://www.w3.org/1999/xlink"
     width="438" height="480" viewBox="21 15 438 480">
<metadata>
<rdf:RDF>
<rdf:Description
 dc:title="Wappen Furna (CH-GR)"
 dc:date="2006-10-29"
 dc:format="image/svg+xml"
 dc:language="de">
<dc:creator rdf:resource="http://de.wikipedia.org/wiki/Benutzer:Bernina" />
</rdf:Description>
</rdf:RDF>
</metadata>
<title>
Wappen Furna (CH-GR)
</title>
<style type="text/css">
  <![CDATA[
  .Rand2 { stroke: #202020; stroke-width:30; }
  .Rand6 { stroke: #202020; stroke-width:90; }
  .Schwarz { fill: #000000; }
  .Blau { fill: #0000ff; }
  .Gold { fill: #ffef00; }
  .Silber { fill: #ffffff; }
  ]]>
</style>
<defs>
<path id="pfeil/feder-1"
      d="M3510,4680 C3300,5250 3090,5820 3030,6165
         C2970,6510 3060,6630 3180,6630 C3300,6630 3450,6510 3600,6510
         C3750,6510 3900,6630 4020,6630 C4140,6630 4230,6510 4170,6165
         C4110,5820 3900,5250 3690,4680" />
<path id="pfeil/schaft-1"
      d="M3480,6930 L3720,6930 L3690,2610 L3510,2610 L3480,6930 Z" />
<path id="pfeil/spitze-1"
      d="M3510,2610 L3690,2610 L3690,1710 L4140,2520 L4230,2160 L3960,1710
         L3690,1170 L3600,900 L3510,1170 L3240,1710 L2970,2160 L3060,2520
         L3510,1710 L3510,2610 Z" />
<path id="pfeil/knopf-1"
      d="M3645,2430 A45,45 0.0 0 0 3555,2430 A45,45 0.0 0 0 3645,2430 Z" />
<clipPath id="clippath">
<path d="M360,4140 A3240,3240 0.0 0 0 6840,4140 L6840,270 L360,270 L360,4140 Z" />
</clipPath>
</defs>
<g stroke="none" stroke-miterlimit="10" stroke-width="10"
   stroke-linecap="butt" stroke-linejoin="miter"
   fill="none" fill-rule="evenodd" transform="scale(0.066667)">
<g clip-path="url(#clippath)">
<path id="feld-1" class="Blau"
      d="M-225,-225 L-225,7425 L7425,7425 L7425,-225 L-225,-225 Z" />
<path id="mond-1" class="Gold Rand2"
      d="M1080,4320 A2520,2520 0.0 0 0 6120,4320 A2925,2925 0.0 0 1 1080,4320 Z" />
<g transform="rotate(57 3600,2430) translate(0,-1620)">
<use class="Gold Rand2" xlink:href="#pfeil/feder-1" />
<use class="Gold Rand2" xlink:href="#pfeil/schaft-1" />
<use class="Silber Rand2" xlink:href="#pfeil/spitze-1" />
<use class="Schwarz" xlink:href="#pfeil/knopf-1" />
</g>
<g transform="rotate(-57 3600,2430) translate(0,-1620)">
<use class="Gold Rand2" xlink:href="#pfeil/feder-1" />
<use class="Gold Rand2" xlink:href="#pfeil/schaft-1" />
<use class="Silber Rand2" xlink:href="#pfeil/spitze-1" />
<use class="Schwarz" xlink:href="#pfeil/knopf-1" />
</g>
</g>
<path id="clip-boundary" class="Rand6"
      d="M360,4140 A3240,3240 0.0 0 0 6840,4140 L6840,270 L360,270 L360,4140 Z" />
</g>
</svg>
